X: 30452
T: MISS GREEN'S FANCY
C:
%R: jig
B: Elias Howe "The Musician's Companion" Part 3 1844 p.45 #2
S: http://imslp.org/wiki/The_Musician's_Companion_(Howe,_Elias)
S: https://archive.org/stream/firstthirdpartof03howe/#page/66/mode/1up
Z: 2015 John Chambers <jc:trillian.mit.edu>
M: 6/8
L: 1/8
K: C
% - - - - - - - - - - - - - - - - - - - - - - - - -
G |\
c2c cGc | d2d dGd | ece gec | dBG G3 |\
c2e gec | ded g2B | e^fg A2f | g3 G2 :|
|: A |\
dGA BAG | ecd edc | fdf ece | d3 GAB |\
cGc d[GE]d | ece f2a | gec G2B | c3- c2 :|
% - - - - - - - - - - - - - - - - - - - - - - - - -


